!!! OTL: Literature5
!!! Chapter: 5
!!! Section: I
!!! Page: 345
!!! Mode: 
!!! Encoder: DJB
**kern
*staff1
*I"Piano
=1-
*clefG2
*k[b-]
*F:
*M4/4
4r
4r
4r
4a/
=2
4f/
4g/
8a/L
8b-/J
4cc\
=3
2b-\
4a/
8a/L
8b-/J
=4
4cc\
4cc\
4g/
8a/L
8g/J
=5
2f/
4e/
4c/
=6
4f/
4g/
8a\L
16b-\L
16cc\JJ
8b-/L
8a/J
=7
2.g/
4a/
=8
4f/
4g/
8a/L
8b-/J
4cc\
=9
!!linebreak:original
2b-\
4a/
8a/L
8b-/J
=10
4cc\
4cc\
4g/
8a/L
8g/J
=11
2f/
4e/
4c/
=12
4f/
4g/
4a/
8g/L
16a/L
16b-/JJ
=13
4a/
4g/
4f/
4r
==
*-
